X:1
T:Jesu Dilectissime, 76.76 D
T:Jesu Dilectissime, 76.76 D
T:Robert Hyslop McCartney (1844-1895/1905)
T:Public Domain Courtesy of the Cyber Hymnal™
C:Robert Hyslop McCartney (1844-1895/1905)
Z:Public Domain
Z:Courtesy of the Cyber Hymnal™
%%score ( 1 2 ) ( 3 4 )
L:1/8
Q:1/4=110
M:4/4
K:G
V:1 treble 
V:2 treble 
V:3 bass 
V:4 bass 
V:1
 [DB]2 | [Ec]2 [DB]2 [CA]2 [CE]2 | [CG]4 [CF]2 [CE]2 | [CD]2 [CF]2 [CB]2 [CA]2 | D6 [B,D]2 | %5
 D2 [DG]2 [^CF]2 [CE]2 | (A2 d2) [E^c]2 [DB]2 [DE]2 [DG]2 [^CF]2 [CE]2 | D6 D2 | %8
 [CD]2 [CF]2 [CB]2 [CA]2 | G4 D2 [^CE]2 | [DF]2 [DA]2 [Dd]2 [Dc]2 | %11
 [DB]6 G2 [=FG]2 [FB]2 [Fe]2 [Fd]2 | ([Ec]2 [DB]2) [^CA]2 [CE]2 | D2 [DF]2 [CB]2 [CA]2 | [B,G]12 |] %15
 x8 | x6 |] %17
V:2
 x2 | x8 | x8 | x8 | (C4 B,2) x2 | D2 x6 | D4 x12 | D6 D2 | x8 | (B,2 D2) D2 x2 | x8 | x6 G2 x8 | %12
 x8 | D2 x6 | x12 |] x8 | x6 |] %17
V:3
 [G,,G,]2 | [G,,G,]2 [G,,G,]2 [C,E,]2 [A,,A,]2 | [D,A,]4 [D,A,]2 [D,G,]2 | %3
 [D,F,]2 [D,A,]2 [E,G,]2 [F,A,]2 | G,6 G,2 | [G,B,]2 [E,B,]2 A,2 [G,A,]2 | %6
 (A,2 ^A,2) [G,A,]2 [G,B,]2 x8 | [G,B,]2 [E,B,]2 [A,,A,]2 [A,,G,]2 | [D,F,]6 [D,F,]2 | %9
 [D,F,]2 [D,A,]2 [E,G,]2 [F,A,]2 | [G,B,]4 [F,A,]2 [E,G,]2 | [D,A,]2 [C,F,]2 [B,,G,]2 [A,,F,]2 x8 | %12
 [G,,G,]6 [G,B,]2 | [G,B,]2 [G,D]2 [G,A,]2 [G,B,]2 | ([C,C]2 [E,^G,]2) [A,,A,]2 [A,,=G,]2 x4 |] %15
 [D,F,]2 [D,A,]2 [D,E,]2 [D,F,]2 | [G,,G,]6 |] %17
V:4
 x2 | x8 | x8 | x8 | G,6 G,2 | x4 A,2 x2 | F,4 x12 | x8 | x8 | x8 | x8 | x16 | x8 | x8 | x12 |] %15
 x8 | x6 |] %17

